!!!COM: Corelli, Arcangelo
!!!OTL: 
!!!ONM: Opus 3, No. 1
!!!OMV: 2
!!!CDT: 1653/2/17/-1713/1/8/
!!!OCY: Italia
**kern	**kern	**kern	**kern
*clefC	*clefC	*clefG	*clefG
*k[b-]	*k[b-]	*k[b-]	*k[b-]
*F:	*F:	*F:	*F:
*M4/4	*M4/4	*M4/4	*M4/4
=1	=1	=1	=1
1r	1r	1r	2f
.	.	.	4.cc
.	.	.	8cc
=2	=2	=2	=2
1r	1r	2r	8dd
.	.	.	8dd
.	.	.	8dd
.	.	.	16cc
.	.	.	16b-
.	.	2f	8cc
.	.	.	8f
.	.	.	[4ff
=3	=3	=3	=3
1r	1r	4.cc	4ff]
.	.	.	4ee
.	.	8cc	.
.	.	8dd	8r
.	.	8dd	8aa
.	.	8dd	[4bb-
.	.	16cc	.
.	.	16b-	.
=4	=4	=4	=4
2F	2F	8cc	8bb-]
.	.	8f	16aa
.	.	.	16gg
.	.	2ff	8aa
.	.	.	16bb-
.	.	.	16aa
4.c	4.c	.	4.gg
.	.	4ee	.
8c	8c	.	16aa
.	.	.	16gg
=5	=5	=5	=5
8d	8d	8r	4.ff
8d	8d	8aa	.
8d	8d	4.bb-	.
16c	16c	.	16ee
16B-	16B-	.	16dd
8c	8c	.	8ee
8F	8F	16aa	8cc
.	.	16gg	.
[4f	[4f	8aa	8r
.	.	16bb-	8ccc
.	.	16aa	.
=6	=6	=6	=6
4f]	4f]	2gg	4.bb-
4e	4e	.	.
.	.	.	16ccc
.	.	.	16bb-
4.f	4.f	8cc	4.aa
.	.	8ff	.
.	.	8aa	.
8f	8f	8ff	8aa
=7	=7	=7	=7
4.e	4.e	8ccc	8gg
.	.	8g	8cc
.	.	2cc	8ee
8e	8e	.	8cc
4d	8d	.	4.ff
.	8c	.	.
4G	8d	4b	.
.	8G	.	16gg
.	.	.	16ff
=8	=8	=8	=8
4.c	8c	4.cc	16ee
.	.	.	16ff
.	8d	.	16ee
.	.	.	16ff
.	8e	.	8gg
8E	8E	8gg	8gg
4.F	8F	4.aa	8gg
.	8G	.	8cc
.	8A	.	[4ff
8F	8F	8aa	.
=9	=9	=9	=9
8G	8G	8b	8ff]
8G	8G	8g	16gg
.	.	.	16ff
8A	8A	2cc	8ee
8E	8E	.	8gg
8F	8F	.	16aa
.	.	.	16gg
8D	8D	.	16ff
.	.	.	16ee
8G	8G	4b	8.dd
8GG	8GG	.	.
.	.	.	16dd
=10	=10	=10	=10
4C	4C	4cc	4ee
2.r	2.r	8r	4cc
.	.	8ccc	.
.	.	8aa	4.ff
.	.	8gg	.
.	.	8aa	.
.	.	8ff	8ff
=11	=11	=11	=11
1r	1r	4gg	8bb-
.	.	.	8bb-
.	.	4.gg	8bb-
.	.	.	16aa
.	.	.	16gg
.	.	.	4.aa
.	.	16ff	.
.	.	16ee	.
.	.	[4ff	.
.	.	.	16bb-
.	.	.	16aa
=12	=12	=12	=12
2C	2C	4ff]	4gg
.	.	4ee	4.gg
4.F	4.F	4aa	.
.	.	.	8cc
.	.	[4aa	8ff
8F	8F	.	16ff
.	.	.	16ee
=13	=13	=13	=13
8B-	8B-	8aa]	4.dd
8B-	8B-	8dd	.
8B-	8B-	4.gg	.
16A	16A	.	16cc
16G	16G	.	16b-
4.A	4.A	.	4.cc
.	.	8cc	.
.	.	[4ff	.
8d	8d	.	8f
=14	=14	=14	=14
4G	4G	8ff]	16b-
.	.	.	16a
.	.	16gg	16b-
.	.	16ff	16cc
4c	4c	4.ee	16b-
.	.	.	16dd
.	.	.	16cc
.	.	.	16b-
4.F	4.F	.	4.a
.	.	8a	.
.	.	[4dd	.
8B-	8B-	.	8aa
=15	=15	=15	=15
4E	4E	4dd]	16gg
.	.	.	16ff
.	.	.	16gg
.	.	.	16aa
4A	4A	4cc#	16gg
.	.	.	16bb-
.	.	.	16aa
.	.	.	16gg
4D	4D	4.dd	8ff
.	.	.	8a
4r	4r	.	[4b-
.	.	8dd	.
=16	=16	=16	=16
4.F	4.F	16cc	8b-]
.	.	16b-	.
.	.	16cc	16a
.	.	16dd	16g
.	.	16cc	4.a
.	.	16dd	.
16F	16F	16cc	.
16E	16E	16dd	.
8D	8D	16b-	.
.	.	16a	.
8D	8D	16b-	8d
.	.	16cc	.
8E	8E	16b-	[4g
.	.	16dd	.
8C	8C	16cc	.
.	.	16b-	.
=17	=17	=17	=17
8F	8F	4.a	8g]
16F	16F	.	8cc
16G	16G	.	.
8A	8A	.	4.ff
8AA	8AA	8cc	.
4.BB-	4.BB-	4.dd	.
.	.	.	8dd
.	.	.	[4gg
8GG	8GG	8dd	.
=18	=18	=18	=18
4.C	4.C	4.ee	8gg]
.	.	.	8ee
.	.	.	4.aa
8AA	8AA	8ee	.
4.D	4.D	4.ff	.
.	.	.	8ff
.	.	.	[4bb-
8BB-	8BB-	8gg	.
=19	=19	=19	=19
8C	8C	8ee	4bb-]
8c	8c	8cc	.
8d	8d	2ff	4aa
8A	8A	.	.
8B-	8B-	.	2gg
8G	8G	.	.
8c	8c	4ee	.
8C	8C	.	.
=20	=20	=20	=20
8F	8F	4.ff	4.ff
8G	8G	.	.
8A	8A	.	.
8AA	8AA	8a	8cc
8BB-	8BB-	8d	8dd
8C	8C	8e	8cc
8D	8D	[4f	8b-
8AA	8AA	.	8a
=21	=21	=21	=21
8BB-	8BB-	4f]	2g
8GG	8GG	.	.
8C	8C	4e	.
8CC	8CC	.	.
2FF	2FF	2f	2f
=22	=22	=22	=22
1r	1r	1r	16ff
.	.	.	16aa
.	.	.	16gg
.	.	.	16ff
.	.	.	16ee
.	.	.	16dd
.	.	.	16cc
.	.	.	16b-
.	.	.	16a
.	.	.	16ff
.	.	.	16ee
.	.	.	16dd
.	.	.	16cc
.	.	.	16b-
.	.	.	16a
.	.	.	16g
=23	=23	=23	=23
1r	1r	16ff	2f
.	.	16aa	.
.	.	16gg	.
.	.	16ff	.
.	.	16ee	.
.	.	16dd	.
.	.	16cc	.
.	.	16b-	.
.	.	16a	4.cc
.	.	16ff	.
.	.	16ee	.
.	.	16dd	.
.	.	16cc	.
.	.	16b-	.
.	.	16a	8cc
.	.	16g	.
=24	=24	=24	=24
2r	2r	8f	8dd
.	.	16g	8dd
.	.	16a	.
.	.	4.b-	8dd
.	.	.	16cc
.	.	.	16b-
2F	2F	.	8cc
.	.	16a	8f
.	.	16g	.
.	.	8a	[4ff
.	.	16g	.
.	.	16f	.
=25	=25	=25	=25
4.c	4.c	8g	8ff]
.	.	8c	16gg
.	.	.	16ff
.	.	4.cc	8ee
8c	8c	.	16aa
.	.	.	16gg
8d	8d	.	8ff
8d	8d	8f	4dd
8d	8d	[4b-	.
16c	16c	.	8gg
16B-	16B-	.	.
=26	=26	=26	=26
8c	8c	8b-]	8ee
8F	8F	16a	4cc
.	.	16g	.
4.f	4.f	8a	.
.	.	8aa	8ccc
.	.	16gg	16bb-
.	.	16ff	16aa
16e	16e	16gg	16bb-
16d	16d	16aa	16ccc
[4e	[4e	16gg	16bb-
.	.	16bb-	16ddd
.	.	16aa	16ccc
.	.	16gg	16bb-
=27	=27	=27	=27
8e]	8e]	16ff	8ccc
.	.	16ee	.
8A	8A	16ff	4aa
.	.	16gg	.
4.d	4.d	16ff	.
.	.	16aa	.
.	.	16gg	16bb-
.	.	16ff	16aa
.	.	8ee	8gg
8c	8c	4aa	16ff
.	.	.	16ee
4B-	4B-	.	8dd
.	.	[8gg	16ee
.	.	.	16dd
=28	=28	=28	=28
8A	8A	8gg]	8cc#
8D	8D	16ff	4aa
.	.	16ee	.
8G	8G	8dd	.
8GG	8GG	16ee	4gg
.	.	16dd	.
8AA	8AA	8cc#	.
8BB-	8BB-	4dd	8ff
8GG	8GG	.	4ee
8AA	8AA	8cc#	.
=29	=29	=29	=29
4DD	4DD	4dd	16dd
.	.	.	16ff
.	.	.	16ee
.	.	.	16dd
2.r	2.r	4r	16cc
.	.	.	16b-
.	.	.	16a
.	.	.	16g
.	.	16r	16f
.	.	16ff	16aa
.	.	16ee	16gg
.	.	16dd	16ff
.	.	16cc	16ee
.	.	16b-	16dd
.	.	16a	16cc
.	.	16g	16b-
=30	=30	=30	=30
2r	2r	16f	16a
.	.	16aa	16ccc
.	.	16gg	16bb-
.	.	16ff	16aa
.	.	16ee	16gg
.	.	16dd	16ff
.	.	16cc	16ee
.	.	16b-	16dd
4F	16r	8a	4.cc
.	16f	.	.
.	16e	8b-	.
.	16d	.	.
4AA	16c	[4cc	.
.	16B-	.	.
.	16A	.	8cc
.	16G	.	.
=31	=31	=31	=31
2BB-	16F	8cc]	8dd
.	16c	.	.
.	16B-	8f	8dd
.	16A	.	.
.	16G	4.b-	8dd
.	16F	.	.
.	16E	.	16cc
.	16D	.	16dd
4C	16C	.	8ee
.	16D	.	.
.	16E	16cc	16dd
.	16C	16b-	16ee
4F	16F	8a	[4ff
.	16G	.	.
.	16A	16b-	.
.	16F	16a	.
=32	=32	=32	=32
4c	4c	8g	8ff]
.	.	4cc	8ee
4G	4G	.	8dd
.	.	8b-	4gg
4d	4d	8a	.
.	.	4dd	8ff
4A	4A	.	8ee
.	.	8cc	[8aa
=33	=33	=33	=33
8D	8D	8b-	8aa]
8E	8E	4bb-	8gg
8F	8F	.	8cc
8FF	8FF	8aa	4ff
4C	4C	4gg	.
.	.	.	8ee
4D	4D	4ff	8a
.	.	.	[8dd
=34	=34	=34	=34
4AA	4AA	4ee	8dd]
.	.	.	8cc
4BB-	4BB-	4dd	8f
.	.	.	4b-
2F	2F	8cc	.
.	.	8f	8a
.	.	8a	8cc
.	.	16g	16b-
.	.	16f	16a
=35	=35	=35	=35
4.c	4.c	4e	8g
.	.	.	8c
.	.	8r	4.cc
8c	8c	8aa	.
8d	8d	8ff	.
8d	8d	4dd	8f
8d	8d	.	[4b-
16c	16c	8gg	.
16B-	16B-	.	.
=36	=36	=36	=36
2c	2c	8ee	4b-]
.	.	8cc	.
.	.	2ff	4a
2C	2C	.	2g
.	.	4ee	.
=37	=37	=37	=37
1FF	1FF	1ff	1f
==	==	==	==
*-	*-	*-	*-
!!!RWG: This file only contains pitch and duration data.
!!!RWG: Transposing instruments are not transposed.
!!!RWG: Durations of rests and tied notes may be interpreted.
!!!RWG: Key is interpreted using the Humdrum key tool.
!!!SCA: 
!!!YOR: Chrysander Edition
!!!AGN: chamber
!!!AFT: stage1
!!!ENC: F. Bennion
!!!END: 1997/04/15
!!!AST: baroque
!!!YEC: Copyright 1994, Center for Computer Assisted Research in the Humanities
!!!YEM: Rights to all derivative electronic formats reserved.
!!!YEM: Refer to licensing agreement for further details.
!!!YEN: United States of America
!!!EED: W.B. Hewlett
!!!KEY: 2772623441
!!!EMD: Converted from MuseData to Humdrum Aug 9, 1999, by Bret Aarden using muse2kern.
!!!VTS: 1812943674
